src/images/ViceVersa.svg

<svg width="34" height="34" viewBox="0 0 34 34" fill="none" xmlns="http://www.w3.org/2000/svg">
<rect width="34" height="34" rx="17" fill="black"/>
<path d="M26.8083 20.0583C26.565 19.8142 26.1692 19.8142 25.925 20.0583L24.075 21.9083V13.375C24.075 11.6517 22.6725 10.25 20.95 10.25H16.075C15.73 10.25 15.45 10.53 15.45 10.875C15.45 11.22 15.73 11.5 16.075 11.5H20.95C21.9833 11.5 22.825 12.3417 22.825 13.375V21.9083L20.975 20.0583C20.7308 19.8142 20.335 19.8142 20.0917 20.0583C19.8483 20.3025 19.8467 20.6983 20.0917 20.9417L23.0083 23.8583C23.1292 23.9808 23.2892 24.0417 23.45 24.0417C23.6108 24.0417 23.7692 23.9817 23.8917 23.8583L26.8083 20.9417C27.0533 20.6983 27.0533 20.3025 26.8083 20.0583V20.0583ZM17.925 22.7917H13.05C12.0167 22.7917 11.175 21.95 11.175 20.9167V12.3833L13.025 14.2333C13.1483 14.3558 13.3083 14.4167 13.4683 14.4167C13.6283 14.4167 13.7883 14.3558 13.91 14.2333C14.1542 13.9892 14.1542 13.5933 13.91 13.35L10.9933 10.4333C10.7492 10.1883 10.3533 10.1883 10.11 10.4333L7.19333 13.35C6.94833 13.5933 6.94833 13.9892 7.19333 14.2333C7.43833 14.4775 7.8325 14.4775 8.07667 14.2333L9.92667 12.3833V20.9167C9.92667 22.64 11.3292 24.0417 13.0517 24.0417H17.9267C18.2717 24.0417 18.5517 23.7617 18.5517 23.4167C18.5517 23.0717 18.2708 22.7917 17.9267 22.7917H17.925Z" fill="#6E767D"/>
</svg>

<svg xmlns="http://www.w3.org/2000/svg" viewBox="0 0 34 34"><defs><style>.cls-1{fill:green;opacity:0;}.cls-2{fill:#fff;}</style></defs><g id="Calque_2" data-name="Calque 2"><g id="Calque_1-2" data-name="Calque 1"><path class="cls-1" d="M17,0h0A17,17,0,0,1,34,17h0A17,17,0,0,1,17,34h0A17,17,0,0,1,0,17H0A17,17,0,0,1,17,0Z"/><path class="cls-2" d="M26.81,20.06a.62.62,0,0,0-.89,0l-1.84,1.85V13.38A3.13,3.13,0,0,0,21,10.25H16.08a.63.63,0,1,0,0,1.25H21a1.88,1.88,0,0,1,1.88,1.88v8.53L21,20.06a.63.63,0,1,0-.89.88L23,23.86a.63.63,0,0,0,.88,0l2.92-2.92a.63.63,0,0,0,0-.88Zm-8.89,2.73H13.05a1.87,1.87,0,0,1-1.87-1.87V12.38L13,14.23a.63.63,0,0,0,.45.19.59.59,0,0,0,.44-.19.63.63,0,0,0,0-.88L11,10.43a.63.63,0,0,0-.88,0L7.19,13.35a.63.63,0,0,0,.89.88l1.85-1.85v8.54A3.12,3.12,0,0,0,13.05,24h4.88a.63.63,0,0,0,0-1.25Z"/></g></g></svg>
